X:11
T:Jock the Laird's brother
Z:Jack Campin - http://www.campin.me.uk
S:Blaikie MS (NLS MS.1578) p4, Blaikie #10
M:C
L:1/8
V:1 midi program 1 74
V:2 midi program 1 46 bass middle = d transpose -24
Q:1/4=100
K:Eb
[V:1] G2|E2CB, CEGB|cB```````GE F2FG|E2CB, CEce|BGFE E3||
[V:2] z2|E2e2  E2e2|E2       e2 B2bz|e2e2  a2a2|b2B2 e3||
%
[V:1]  E|FFGB  ccef|g/f/e/c/ BG F2FG|E2CB, CEce|BGFE E3|]
[V:2]  z|B2e2  a2gf|e2       e2 B2bz|E2e2  a2a2|b2B2 e3|]
W:Transcription (c) Jack Campin 2009, no mirroring or republication without permission

